!!!COM: Gabriel Faure/
!!!CNT: Francais
!!!TXO: Francais
!!!OTL: "A Clyme\ne"
!!!LYR: Verlaine
!!!OPR: Cinq Me/lodies
!!!OPS: Op. 58
!!!ONM: No. 4
!!!ENC: Emily Thomas
!!!YOR: CD Sheet Music French Art Songs, The Ultimate Collection
!!!YOR: CD Sheet Music, LLC 2003
!!!ODT: 1891/
!!NB: Vocal melody and text encoded.
**kern	**silbe
=1	=1
*clefG2	*
*k[b-]	*
*M9/8	*
*MM[Andantino]	*
2.r	.
4.r	.
=2	=2
2.r	.
4.r	.
=3	=3
2.r	.
4.r	.
=4	=4
4r	.
8r	.
4r	.
8r	.
{4.e	{Mys-
=5	=5
[4.a	-ti-
4a]	|
8a	-ques
4bn	bar-
8g	-ca-
=6	=6
2.cc	-rol-
4.f	|
=7	=7
[2.cc	-les
4.cc]}	|}
=8	=8
2.r	.
4.r	.
=9	=9
2.r	.
4.r	.
=10	=10
2.r	.
4.r	.
=11	=11
2.r	.
4.r	.
=12	=12
4r	.
8r	.
4r	.
8r	.
{4.e	{Ro-
=13	=13
[4.a	-man-
4a]	|
8a	-ces
4bn	sans
8g	pa-
=14	=14
2.cc	-ro-
4.f	|
=15	=15
[2.cc	-les
4.cc]}	|}
=16	=16
2.r	.
4.r	.
=17	=17
2.r	.
4.r	.
=18	=18
2.r	.
4.r	.
=19	=19
{[2.ee-	{Che\-
4.ee-_	|
=20	=20
2.ee-_	|
4.ee-_	|
=21	=21
4.ee-]	|
2.e-}	-re,}
=22	=22
4r	.
8r	.
{4.e-	{Puis-
4f	-aue
8g	tes
=23	=23
4a	yeux
8a	Cou-
[4.dd	-leur
4dd]	|
8cc	des
=24	=24
4.bn	cieux,
4.dd	Puis-
4f	-que
8f	ta
=25	=25
*M4/4	*
*MM[Un poco piu\ mosso]	*
[2cc	voix
4cc]}	|}
8r	.
{8cc	{e/-
=26	=26
[2dd	-tran-
8dd]	|
8dd	-ge,
8.b-	Vi-
16b-	-si-
=27	=27
2g}	-on}
4r	.
{8.cc	{qui
16ee-	de/-
=28	=28
4dd	-ran-
[4b-	-ge
8b-]	|
8r	.
4b-	Et
=29	=29
[2cc	trou-
8cc]	|
8cc	-ble
8.cc#	l'ho-
16cc#	-ri-
=30	=30
*M9/8	*
*MM[Tempo I]	*
[2.dd	-zon
4.dd_	|
=31	=31
4.dd_	|
4dd]	|
8cc	De
4a	ma
8bn	rai-
=32	=32
[2.g	-son,
8g]}	|}
8r	.
8r	.
=33	=33
2.r	.
4.r	.
=34	=34
4r	.
8r	.
{4.a	{Puis-
4a	-que
8a	l'a-
=35	=35
[2.b-	-ro^me
4b-]	|
8g-	in
=36	=36
2.an	-si-
8a}	-gne,}
8r	.
{8a	{De
=37	=37
4b-	ta
8b-	pa^-
[4.g-	-leur
4g-]	|
8g-	de
=38	=38
2.dd-	cy-
4.cc-}	-gne}
=39	=39
4r	.
8r	.
{4.b--	{Et
4cc-	puis-
8cc-	-que
=40	=40
4ccn	la
8ccn	can-
[4.ee-	-deur,
4ee-]	|
8g	De
=41	=41
4a-	ton
8b-	o-
2.a-}	-deur}
=42	=42
8.r	.
{8.an	{Ah!
8.bn	pour
8.bn	que
4cc	tout
8cc	ton
=43	=43
2.ff	e^-
4.a}	-tre}
=44	=44
8r	.
8r	.
{8b-	{Mu-
[4.dd	-si-
4dd]	|
8cc	-que
=45	=45
4dd	qui
8dd	pe/-
[4.ee	-ne\-
4ee]	|
8dd}	-tre,}
=46	=46
4r	.
8r	.
{[4.dd	{Nim-
4dd]	|
8dd	-bes
=47	=47
2.cc	d'an-
4a	-ges
8g	de/-
=48	=48
[2.a	-funts,
4a]}	|}
8r	.
=49	=49
{2.cc	{Tons
4dd	et
8ee	par-
=50	=50
[2.ee	-fums.
4.ee_	|
=51	=51
2.ee_	|
4.ee]}	|}
=52	=52
2.r	.
4.r	.
=53	=53
4r	.
8r	.
{[4.f#	A-
4f#]	|
8f#	-zur
=54	=54
4.dd	d'al-
4.dd	|
4e	-mes
8f#	ca-
=55	=55
2.g#	-den-
4g#}	-ces}
8r	.
=56	=56
{4.dd	{En
8.d	ses
8.d	cor-
4e	-res-
8f#	-pon-
=57	=57
2.g#	-dan-
4.g#}	-ces}
=57	=57
4r	.
8r	.
4r	.
8r	.
{4.c	{In-
=58	=58
2.d-	-duit
4.f	mon
=59	=59
[2.g	Coeur
8.g]	|
8.a	sub-
=60	=60
[2.b-	-til
4.b-_	|
=61	=61
4.b-]}	|}
4r	.
8r	.
4r	.
8r	.
=62	=62
2.r	.
4.r	.
=63	=63
2.r	.
4.r	.
=64	=64
4r	.
8r	.
4r	.
8r	.
{4.dd	{Ain-
=65	=65
[2.ee-	-si
4ee-]	|
8cc	soit-
=66	=66
[2.dd	-il.
4.dd_	|
=67	=67
2.dd_	|
4.dd]}	|}
==	==
*-	*-
